!!!OTL-incipit: ES GING EIN MAIDLEIN ZARTE
!!!ARE: Europa, Mitteleuropa, Deutschland
!!!SCT: Z0065
!!!TXL: @@DE
!!!YEM: Copyright 1995, estate of Helmut Schaffrath.
**kern	**text
*ICvox	*
*M6/4	*
*k[]	*
!LO:TX:a:t=Alt-Deutſch.	!
{4e	Es
=1	=1
2cc	ging
4b/	ein
2a	Maid-
4b/	-lein
=2	=2
2.f	ʒar-
2e}	-te,
{4b/	früh
=3	=3
2ee	in
4gg	der
2ff	Mor-
4ee	-gen-
=4	=4
[2.b/	-ſtund,
2b/]}	.
{4e	Jn
=5	=5
2cc	ei-
4b/	-nem
2a	Blu-
4b/	-men-
=6	=6
2.f	-gar-
2e}	-ten,
{4b/	friſch,
=7	=7
2ee	fröh-
4gg	-lich
2ff	und
4ee	ge-
=8	=8
[2.b/	-ſund;
2b/]}	.
{4b/	der
=9	=9
2dd	Blüm-
4a	-lein
2b/	es
4dd	viel
=10	=10
2b/	bre-
4a	-chen
2g}	wollt,
{4b/	dar-
=11	=11
2ee	-aus
4gg	ein'n
2ff	Kranʒ
4ee	ʒu
=12	=12
2.dd#	ma-
2b/}	-chen,
{4b/	von
=13	=13
2g	Sil-
4b/	-ber
2f	und
4e	von
=14	=14
[2.e	Gold.
2e]}	.
==	==
!!!Ag: Sagen - Lied, Romanze, Tod
!!!ONB: ESAC (Essen Associative Code) Database: ZUCCAL
!!!AMT: compound duple
!!!AIN: vox
!!!EED: Helmut Schaffrath
!!!EEV: 1.0
!!!GTL: I. Ernste Romanzen und Sagen.
!!!URL-scan: https://www.digitale-sammlungen.de/de/view/bsb11160571?page=133
!!!ENC: Anna Maria Matuszewska
!!!EEV: 2025/01/24
*-	*-
